X:78
T:Waltz from Pajala
M:3/4
L:1/8
Q:1/4=140
R:waltz
K:A
|: cd | "A" e2 ec ea | e3 dce | "Bm" d2 dc df | d3 cBG |
"E7" E2 G2 B2 | d2 c2 B2 | "A" A3 c c2 | A3 ccd | !
e2 ec ea | e3 dce | "Bm" d2 dc df | d3 cBG |
"E7" E2 G2 B2 | d2 c2 B2 | "A" A3 A A2 | A2 z2 :| !
|: cd | "A" e2 e3 c | A6 | Ac ce dc | "E" B6 |
B2 B3 c | d4 ff | "D" f2 g2 f2 | "A" (e4 e) (e | e2) c2 B2 | !
"F#m" A4 A (A | A2) c2 A2 | "Bm" F6 | F2 G2 F2 | E4 d2 |
c4 B2 | "A" A3 A A2 | A4 :|
